X: 23288
T: Leaving Uist
R: waltz
M: 3/4
K: Eminor
eed|:"Em"B3 A AG|AGE2GA|"Am"A3 c"Em"B2|"C"e3 e de|
"G"g3 a ag|edB2BD|"Em"G3 E ED|"Am"E3 e ed|
"Em"B3 d AG|AGE2GA|"Am"A3 c"Em" B2|"C"e3 e de|
"G"g3 a ag|edB2BD|"Em"G3 B B2|"Am"A4 a/a/z|
"D"a3 b{a}b2|age2e.c|"C"d3 e"Em"g2|"G"g3 g (ag)|
"Am"(de) (ga) (ed)|(AB) (de) (AG)|"C"EG2A ED|"Em"E3 g ed|
"Em"B3 d AG|AGE2GA|"Am"A3 c"Em"B2|"C"e3 e de|
"G"g3 a ag|edB2BD|"Em"G3 B {A}B2|1 "Am"A3eed:|2 A6||

